dist/img/svg/property__item-icon--2.svg

<svg width="48" height="48" viewBox="0 0 48 48" fill="none" xmlns="http://www.w3.org/2000/svg">
<circle cx="24" cy="24" r="24" fill="#1F2120"/>
<path d="M21.666 14L21.1758 16.5234C20.3516 16.8343 19.5948 17.2699 18.9316 17.8145L16.5078 16.9785L14.1719 21.0215L16.1133 22.709C16.0386 23.1672 16 23.5918 16 24C16 24.4088 16.0398 24.8326 16.1133 25.291V25.293L14.1719 26.9805L16.5078 31.0215L18.9297 30.1875C19.5929 30.7323 20.3514 31.1656 21.1758 31.4766L21.666 34H26.334L26.8242 31.4766C27.6489 31.1655 28.4049 30.7306 29.0684 30.1855L31.4922 31.0215L33.8262 26.9805L31.8867 25.291C31.9614 24.8328 32 24.4082 32 24C32 23.5925 31.9611 23.1684 31.8867 22.7109V22.709L33.8281 21.0195L31.4922 16.9785L29.0703 17.8125C28.4071 17.2677 27.6486 16.8344 26.8242 16.5234L26.334 14H21.666ZM23.3145 16H24.6855L25.0742 18L26.1172 18.3945C26.7459 18.6315 27.3107 18.9568 27.8008 19.3594L28.6641 20.0664L30.5859 19.4062L31.2715 20.5918L29.7363 21.9277L29.9121 23.0273V23.0293C29.9733 23.4042 30 23.7188 30 24C30 24.2812 29.9733 24.5957 29.9121 24.9707L29.7344 26.0703L31.2695 27.4062L30.584 28.5938L28.6641 27.9316L27.7988 28.6406C27.3087 29.0432 26.7459 29.3685 26.1172 29.6055H26.1152L25.0723 30L24.6836 32H23.3145L22.9258 30L21.8828 29.6055C21.2541 29.3685 20.6893 29.0432 20.1992 28.6406L19.3359 27.9336L17.4141 28.5938L16.7285 27.4082L18.2656 26.0703L18.0879 24.9746V24.9727C18.0276 24.5961 18 24.2807 18 24C18 23.7188 18.0267 23.4043 18.0879 23.0293L18.2656 21.9297L16.7285 20.5938L17.4141 19.4062L19.3359 20.0684L20.1992 19.3594C20.6893 18.9568 21.2541 18.6315 21.8828 18.3945L22.9258 18L23.3145 16ZM24 20C21.8035 20 20 21.8035 20 24C20 26.1965 21.8035 28 24 28C26.1965 28 28 26.1965 28 24C28 21.8035 26.1965 20 24 20ZM24 22C25.1115 22 26 22.8885 26 24C26 25.1115 25.1115 26 24 26C22.8885 26 22 25.1115 22 24C22 22.8885 22.8885 22 24 22Z" fill="white"/>
</svg>

<svg width="48" height="48" viewBox="0 0 48 48" fill="none" xmlns="http://www.w3.org/2000/svg"><circle cx="24" cy="24" r="24" fill="#1F2120"/><path d="M21.666 14l-.49 2.523a7.952 7.952 0 00-2.244 1.291l-2.424-.835-2.336 4.043 1.941 1.687A7.997 7.997 0 0016 24c0 .409.04.833.113 1.291v.002l-1.941 1.688 2.336 4.04 2.422-.834a7.952 7.952 0 002.246 1.29l.49 2.523h4.668l.49-2.523a7.942 7.942 0 002.244-1.291l2.424.835 2.334-4.04-1.94-1.69c.075-.458.114-.883.114-1.291a8.01 8.01 0 00-.113-1.29v-.001l1.941-1.69-2.336-4.04-2.422.834a7.952 7.952 0 00-2.246-1.29L26.334 14h-4.668zm1.648 2h1.372l.388 2 1.043.395a5.943 5.943 0 011.684.964l.863.707 1.922-.66.686 1.186-1.536 1.336.176 1.1v.001c.061.375.088.69.088.971s-.027.596-.088.97l-.178 1.1 1.535 1.336-.685 1.188-1.92-.662-.865.709a5.932 5.932 0 01-1.682.965h-.002L25.072 30l-.388 2h-1.37l-.388-2-1.043-.395a5.943 5.943 0 01-1.684-.964l-.863-.707-1.922.66-.686-1.186 1.538-1.338-.178-1.095v-.002A6.156 6.156 0 0118 24c0-.281.027-.596.088-.97l.178-1.1-1.537-1.336.685-1.188 1.922.662.863-.709a5.943 5.943 0 011.684-.965L22.926 18l.389-2zM24 20c-2.197 0-4 1.803-4 4s1.803 4 4 4 4-1.803 4-4-1.803-4-4-4zm0 2c1.111 0 2 .889 2 2s-.889 2-2 2-2-.889-2-2 .889-2 2-2z" fill="#fff"/></svg>
